public/images/icons/bde/social-icons/whatsapp.svg

<svg width="38" height="34" viewBox="0 0 38 34" fill="none" xmlns="http://www.w3.org/2000/svg">
<rect x="0.5" y="0.5" width="37" height="33" rx="7.5" fill="black" stroke="white"/>
<path fill-rule="evenodd" clip-rule="evenodd" d="M24.6234 18.7866C24.3568 18.6751 23.0462 18.1359 22.8017 18.0616C22.5574 17.9872 22.3797 17.95 22.202 18.1731C22.0242 18.3962 21.5133 18.8982 21.3578 19.047C21.2023 19.1957 21.0468 19.2143 20.7802 19.1027C20.5136 18.9912 19.6546 18.7559 18.6364 17.9965C17.8438 17.4056 17.3088 16.6757 17.1532 16.4526C16.9978 16.2295 17.1367 16.1089 17.2702 15.9978C17.3901 15.898 17.5368 15.7375 17.6701 15.6074C17.8034 15.4772 17.8478 15.3843 17.9367 15.2355C18.0255 15.0868 17.9811 14.9566 17.9144 14.8451C17.8478 14.7335 17.3146 13.6366 17.0925 13.1903C16.8761 12.7558 16.6563 12.8146 16.4927 12.8077C16.3373 12.8013 16.1594 12.7999 15.9817 12.7999C15.8039 12.7999 15.5152 12.8557 15.2708 13.0788C15.0264 13.3019 14.3377 13.8411 14.3377 14.938C14.3377 16.035 15.293 17.0948 15.4263 17.2435C15.5596 17.3923 17.3062 19.6434 19.9805 20.6087C20.6165 20.8383 21.1131 20.9755 21.5003 21.0782C22.1389 21.2478 22.7201 21.2239 23.1795 21.1665C23.6916 21.1025 24.7567 20.6273 24.9789 20.1067C25.201 19.5862 25.201 19.1399 25.1344 19.047C25.0678 18.954 24.89 18.8982 24.6234 18.7866ZM19.7591 24.3389H19.7555C18.1642 24.3384 16.6035 23.9811 15.242 23.3056L14.9181 23.1449L11.5617 23.881L12.4576 21.1453L12.2468 20.8648C11.3591 19.6845 10.8902 18.3202 10.8909 16.9194C10.8928 12.8319 14.871 9.50643 19.7626 9.50643C22.1313 9.5072 24.3579 10.2794 26.0322 11.6806C27.7065 13.0819 28.628 14.9445 28.6271 16.9254C28.6251 21.0132 24.647 24.3389 19.7591 24.3389ZM27.3065 10.6158C25.2921 8.92985 22.6132 8.00093 19.759 8C13.8782 8 9.09186 12.001 9.08948 16.9188C9.08871 18.4909 9.58001 20.0254 10.5136 21.378L9 26L14.6561 24.7597C16.2145 25.4703 17.969 25.8447 19.7547 25.8454H19.7592C25.6395 25.8454 30.4262 21.8439 30.4286 16.9259C30.4296 14.5427 29.3209 12.3017 27.3065 10.6158Z" fill="white"/>
</svg>

<svg fill="none" viewBox="0 0 38 34"><rect width="37" height="33" x=".5" y=".5" fill="#000" stroke="#fff" rx="7.5"/><path fill="#fff" fill-rule="evenodd" d="M24.623 18.787c-.266-.112-1.577-.651-1.821-.725-.245-.075-.422-.112-.6.111s-.689.725-.844.874c-.156.149-.311.167-.578.056-.266-.112-1.125-.347-2.144-1.107a7.055 7.055 0 01-1.483-1.543c-.155-.223-.016-.344.117-.455.12-.1.267-.26.4-.39s.178-.224.267-.373c.088-.148.044-.278-.023-.39-.066-.112-.6-1.208-.822-1.655-.216-.434-.436-.375-.6-.382a12.905 12.905 0 00-.51-.008c-.178 0-.467.056-.711.279-.245.223-.933.762-.933 1.859s.955 2.157 1.088 2.306c.134.148 1.88 2.4 4.554 3.365.636.23 1.133.366 1.52.47.639.169 1.22.145 1.68.087.512-.064 1.577-.539 1.799-1.06.222-.52.222-.966.155-1.059-.066-.093-.244-.149-.51-.26zm-4.864 5.552h-.003c-1.592 0-3.152-.358-4.514-1.033l-.324-.161-3.356.736.896-2.736-.211-.28c-.888-1.18-1.357-2.545-1.356-3.946.002-4.087 3.98-7.413 8.872-7.413 2.368.001 4.595.773 6.27 2.175 1.673 1.4 2.595 3.264 2.594 5.244-.002 4.088-3.98 7.414-8.868 7.414zm7.547-13.723C25.293 8.93 22.614 8 19.76 8c-5.88 0-10.667 4.001-10.67 8.919 0 1.572.491 3.106 1.425 4.459L9 26l5.656-1.24a12.35 12.35 0 005.099 1.085h.004c5.88 0 10.667-4.001 10.67-8.92 0-2.382-1.108-4.623-3.122-6.31z" clip-rule="evenodd"/></svg>
